public/assets/images/field-m13.svg

<svg width="18" height="18" viewBox="0 0 18 18" fill="none" xmlns="http://www.w3.org/2000/svg">
<path d="M15.1501 8.0999V8.1V16.5C15.1501 16.6989 15.0711 16.8897 14.9304 17.0303C14.7898 17.171 14.599 17.25 14.4001 17.25H3.6001C3.40118 17.25 3.21042 17.171 3.06977 17.0303C2.92912 16.8897 2.8501 16.6989 2.8501 16.5V2.5C2.8501 2.30109 2.92912 2.11032 3.06977 1.96967C3.21042 1.82902 3.40119 1.75 3.6001 1.75H8.99969C9.10059 1.75036 9.20042 1.77075 9.29338 1.81C9.38618 1.84918 9.47028 1.90637 9.54083 1.97825C9.54104 1.97847 9.54125 1.97868 9.54146 1.9789L14.9398 7.5772C14.9399 7.57726 14.9399 7.57731 14.94 7.57736C15.0749 7.71786 15.1502 7.90511 15.1501 8.0999ZM9.97962 4.59801L9.5501 4.15484V4.772V7.5V7.75H9.8001H12.4441H13.0346L12.6236 7.32601L9.97962 4.59801ZM4.3501 15.5V15.75H4.6001H13.4001H13.6501V15.5V9.5V9.25H13.4001H8.8001H8.80008C8.60272 9.25001 8.4133 9.17223 8.27291 9.03352C8.13284 8.89514 8.05283 8.70724 8.0501 8.5104V3.5V3.25H7.8001H4.6001H4.3501V3.5V15.5Z" fill="#4F66EE" stroke="white" stroke-width="0.5"/>
</svg>

<svg width="18" height="18" fill="none" xmlns="http://www.w3.org/2000/svg"><path d="M15.15 8.1v8.4a.75.75 0 01-.75.75H3.6a.75.75 0 01-.75-.75v-14a.75.75 0 01.75-.75H9a.762.762 0 01.54.228h.001l5.399 5.6s0 0 0 0c.135.14.21.327.21.522zM9.98 4.598l-.43-.443V7.75h3.484l-.41-.424L9.98 4.598zM4.35 15.5v.25h9.3v-6.5H8.8h0a.75.75 0 01-.75-.74V3.25h-3.7V15.5z" fill="#4F66EE" stroke="#fff" stroke-width=".5"/></svg>
